resources/svg/major-icons.svg

<svg xmlns="http://www.w3.org/2000/svg" viewBox="0 0 20 20" fill="currentColor"><path d="m10.618 18 3.382-6.764 3.382 6.764h-6.764zm-6.618-2v-6.101a5.006 5.006 0 0 0 5.898-5.899h6.102v6.764l-1.106-2.211c-.339-.678-1.449-.678-1.789 0l-3.723 7.447h-5.382zm15.894 2.553-1.894-3.789v-11.264a1.5 1.5 0 0 0-1.5-1.5h-7.526c-.914-1.207-2.347-2-3.974-2-2.757 0-5 2.243-5 5 0 1.627.793 3.061 2 3.975v7.525a1.5 1.5 0 0 0 1.5 1.5h4.882l-.277.553a1 1 0 0 0 .895 1.447h10a.997.997 0 0 0 .894-1.447z"/></svg>

<svg xmlns="http://www.w3.org/2000/svg" viewBox="0 0 20 20" fill="currentColor"><path d="M10.618 18 14 11.236 17.382 18h-6.764zM4 16V9.899A5.006 5.006 0 0 0 9.898 4H16v6.764l-1.106-2.211c-.339-.678-1.449-.678-1.789 0L9.382 16H4zm15.894 2.553L18 14.764V3.5A1.5 1.5 0 0 0 16.5 2H8.974C8.06.793 6.627 0 5 0 2.243 0 0 2.243 0 5c0 1.627.793 3.061 2 3.975V16.5A1.5 1.5 0 0 0 3.5 18h4.882l-.277.553A1 1 0 0 0 9 20h10a.997.997 0 0 0 .894-1.447z"/></svg>
